X:3917
T:Maid in the Meadow
O:england
R:double jig
C:Jig
M:6/8
L:1/8
K:G
B|cec BdB|ABA AGE|DEG AGA|BdB AGE|
cec BdB|ABA AGE|DEG AGA|AGF G2:|
D|GBd (3gag g|ede gdB|GBd gdB|ABA AGE|
GBd (3gag g|ede gdB|GAB AGA|AGF G2:|


